img/application-x-mswinurl.svg

<?xml version="1.0" encoding="UTF-8" standalone="no"?>
<svg
   xmlns:ooo="http://xml.openoffice.org/svg/export"
   xmlns:dc="http://purl.org/dc/elements/1.1/"
   xmlns:cc="http://creativecommons.org/ns#"
   xmlns:rdf="http://www.w3.org/1999/02/22-rdf-syntax-ns#"
   xmlns:svg="http://www.w3.org/2000/svg"
   xmlns="http://www.w3.org/2000/svg"
   xmlns:sodipodi="http://sodipodi.sourceforge.net/DTD/sodipodi-0.dtd"
   xmlns:inkscape="http://www.inkscape.org/namespaces/inkscape"
   version="1.2"
   width="256"
   height="256"
   viewBox="0 0 6773.3334 6773.3334"
   preserveAspectRatio="xMidYMid"
   xml:space="preserve"
   id="svg91"
   sodipodi:docname="application-x-mswinurl.svg"
   style="fill-rule:evenodd;stroke-width:28.22200012;stroke-linejoin:round"
   inkscape:version="0.92.1 r15371"><metadata
     id="metadata95"><rdf:RDF><cc:Work
         rdf:about=""><dc:format>image/svg+xml</dc:format><dc:type
           rdf:resource="http://purl.org/dc/dcmitype/StillImage" /><dc:title></dc:title></cc:Work></rdf:RDF></metadata><sodipodi:namedview
     pagecolor="#ffffff"
     bordercolor="#666666"
     borderopacity="1"
     objecttolerance="10"
     gridtolerance="10"
     guidetolerance="10"
     inkscape:pageopacity="0"
     inkscape:pageshadow="2"
     inkscape:window-width="1855"
     inkscape:window-height="1056"
     id="namedview93"
     showgrid="false"
     units="px"
     inkscape:zoom="0.72095216"
     inkscape:cx="83.916803"
     inkscape:cy="163.67244"
     inkscape:window-x="65"
     inkscape:window-y="24"
     inkscape:window-maximized="1"
     inkscape:current-layer="svg91" /><defs
     class="ClipPathGroup"
     id="defs8"><clipPath
       id="presentation_clip_path"
       clipPathUnits="userSpaceOnUse"><rect
         x="0"
         y="0"
         width="8661"
         height="8661"
         id="rect2" /></clipPath><clipPath
       id="presentation_clip_path_shrink"
       clipPathUnits="userSpaceOnUse"><rect
         x="8"
         y="8"
         width="8644"
         height="8644"
         id="rect5" /></clipPath></defs><defs
     class="TextShapeIndex"
     id="defs12"><g
       ooo:slide="id1"
       ooo:id-list="id3 id4"
       id="g10" /></defs><defs
     class="EmbeddedBulletChars"
     id="defs44"><g
       id="bullet-char-template(57356)"
       transform="matrix(4.8828125e-4,0,0,-4.8828125e-4,0,0)"><path
         d="M 580,1141 1163,571 580,0 -4,571 Z"
         id="path14"
         inkscape:connector-curvature="0" /></g><g
       id="bullet-char-template(57354)"
       transform="matrix(4.8828125e-4,0,0,-4.8828125e-4,0,0)"><path
         d="M 8,1128 H 1137 V 0 H 8 Z"
         id="path17"
         inkscape:connector-curvature="0" /></g><g
       id="bullet-char-template(10146)"
       transform="matrix(4.8828125e-4,0,0,-4.8828125e-4,0,0)"><path
         d="M 174,0 602,739 174,1481 1456,739 Z M 1358,739 309,1346 659,739 Z"
         id="path20"
         inkscape:connector-curvature="0" /></g><g
       id="bullet-char-template(10132)"
       transform="matrix(4.8828125e-4,0,0,-4.8828125e-4,0,0)"><path
         d="M 2015,739 1276,0 H 717 l 543,543 H 174 v 393 h 1086 l -543,545 h 557 z"
         id="path23"
         inkscape:connector-curvature="0" /></g><g
       id="bullet-char-template(10007)"
       transform="matrix(4.8828125e-4,0,0,-4.8828125e-4,0,0)"><path
         d="m 0,-2 c -7,16 -16,29 -25,39 l 381,530 c -94,256 -141,385 -141,387 0,25 13,38 40,38 9,0 21,-2 34,-5 21,4 42,12 65,25 l 27,-13 111,-251 280,301 64,-25 24,25 c 21,-10 41,-24 62,-43 C 886,937 835,863 770,784 769,783 710,716 594,584 L 774,223 c 0,-27 -21,-55 -63,-84 l 16,-20 C 717,90 699,76 672,76 641,76 570,178 457,381 L 164,-76 c -22,-34 -53,-51 -92,-51 -42,0 -63,17 -64,51 -7,9 -10,24 -10,44 0,9 1,19 2,30 z"
         id="path26"
         inkscape:connector-curvature="0" /></g><g
       id="bullet-char-template(10004)"
       transform="matrix(4.8828125e-4,0,0,-4.8828125e-4,0,0)"><path
         d="M 285,-33 C 182,-33 111,30 74,156 52,228 41,333 41,471 c 0,78 14,145 41,201 34,71 87,106 158,106 53,0 88,-31 106,-94 l 23,-176 c 8,-64 28,-97 59,-98 l 735,706 c 11,11 33,17 66,17 42,0 63,-15 63,-46 V 965 c 0,-36 -10,-64 -30,-84 L 442,47 C 390,-6 338,-33 285,-33 Z"
         id="path29"
         inkscape:connector-curvature="0" /></g><g
       id="bullet-char-template(9679)"
       transform="matrix(4.8828125e-4,0,0,-4.8828125e-4,0,0)"><path
         d="M 813,0 C 632,0 489,54 383,161 276,268 223,411 223,592 c 0,181 53,324 160,431 106,107 249,161 430,161 179,0 323,-54 432,-161 108,-107 162,-251 162,-431 0,-180 -54,-324 -162,-431 C 1136,54 992,0 813,0 Z"
         id="path32"
         inkscape:connector-curvature="0" /></g><g
       id="bullet-char-template(8226)"
       transform="matrix(4.8828125e-4,0,0,-4.8828125e-4,0,0)"><path
         d="m 346,457 c -73,0 -137,26 -191,78 -54,51 -81,114 -81,188 0,73 27,136 81,188 54,52 118,78 191,78 73,0 134,-26 185,-79 51,-51 77,-114 77,-187 0,-75 -25,-137 -76,-188 -50,-52 -112,-78 -186,-78 z"
         id="path35"
         inkscape:connector-curvature="0" /></g><g
       id="bullet-char-template(8211)"
       transform="matrix(4.8828125e-4,0,0,-4.8828125e-4,0,0)"><path
         d="M -4,459 H 1135 V 606 H -4 Z"
         id="path38"
         inkscape:connector-curvature="0" /></g><g
       id="bullet-char-template(61548)"
       transform="matrix(4.8828125e-4,0,0,-4.8828125e-4,0,0)"><path
         d="m 173,740 c 0,163 58,303 173,419 116,115 255,173 419,173 163,0 302,-58 418,-173 116,-116 174,-256 174,-419 0,-163 -58,-303 -174,-418 C 1067,206 928,148 765,148 601,148 462,206 346,322 231,437 173,577 173,740 Z"
         id="path41"
         inkscape:connector-curvature="0" /></g></defs><defs
     class="TextEmbeddedBitmaps"
     id="defs46" /><g
     id="g53"
     transform="matrix(0.78214012,0,0,0.78214012,0,-0.9999)"><g
       id="id2"
       class="Master_Slide"><g
         id="bg-id2"
         class="Background"><path
           d="M 4330,8660 H 0 V 0 h 8660 v 8660 z"
           id="path48"
           inkscape:connector-curvature="0"
           style="fill:#ffffff;stroke:none" /></g><g
         id="bo-id2"
         class="BackgroundObjects" /></g></g><g
     class="SlideGroup"
     id="g89"
     transform="matrix(0.78204981,0,0,0.78204981,3.4789999e-5,-0.9999)"><g
       id="g87"><g
         id="container-id1"><g
           id="id1"
           class="Slide"
           clip-path="url(#presentation_clip_path)"><g
             class="Page"
             id="g83"><g
               class="com.sun.star.drawing.CustomShape"
               id="g66"><g
                 id="id3"><rect
                   class="BoundingBox"
                   x="493"
                   y="-904"
                   width="7153"
                   height="10470"
                   id="rect55"
                   style="fill:none;stroke:none" /><path
                   d="M 494,6849 4930,2414 3532,1016 7507,1153 7644,5128 6246,3730 1811,8166 Z M 5451,-903 Z M 3209,9564 Z"
                   id="path57"
                   inkscape:connector-curvature="0"
                   style="fill:#38629a;stroke:none" /><path
                   d="M 494,6849 4930,2414 3532,1016 7507,1153 7644,5128 6246,3730 1811,8166 Z"
                   id="path59"
                   inkscape:connector-curvature="0"
                   style="fill:none;stroke:#3465a4" /><path
                   d="M 5451,-903 Z"
                   id="path61"
                   inkscape:connector-curvature="0"
                   style="fill:none;stroke:#3465a4" /><path
                   d="M 3209,9564 Z"
                   id="path63"
                   inkscape:connector-curvature="0"
                   style="fill:none;stroke:#3465a4" /></g></g><g
               class="com.sun.star.drawing.CustomShape"
               id="g81"><g
                 id="id4"><rect
                   class="BoundingBox"
                   x="-2"
                   y="-2"
                   width="8665"
                   height="8665"
                   id="rect68"
                   style="fill:none;stroke:none" /><path
                   d="M -1,-1 H 8661 V 8661 H -1 Z M 390,390 H 8269 V 8269 H 390 Z M -1,-1 Z m 8662,8662 z"
                   id="path70"
                   inkscape:connector-curvature="0"
                   style="fill:#38629a;stroke:none" /><path
                   d="M -1,-1 H 8661 V 8661 H -1 Z"
                   id="path72"
                   inkscape:connector-curvature="0"
                   style="fill:none;stroke:#3465a4" /><path
                   d="M 390,390 H 8269 V 8269 H 390 Z"
                   id="path74"
                   inkscape:connector-curvature="0"
                   style="fill:none;stroke:#3465a4" /><path
                   d="M -1,-1 Z"
                   id="path76"
                   inkscape:connector-curvature="0"
                   style="fill:none;stroke:#3465a4" /><path
                   d="M 8661,8661 Z"
                   id="path78"
                   inkscape:connector-curvature="0"
                   style="fill:none;stroke:#3465a4" /></g></g></g></g></g></g></g></svg>

<?xml version="1.0" encoding="UTF-8"?>
<!DOCTYPE svg PUBLIC "-//W3C//DTD SVG 1.1//EN" "http://www.w3.org/Graphics/SVG/1.1/DTD/svg11.dtd">
<svg version="1.2" width="86.61mm" height="86.61mm" viewBox="0 0 8661 8661" preserveAspectRatio="xMidYMid" fill-rule="evenodd" stroke-width="28.222" stroke-linejoin="round" xmlns="http://www.w3.org/2000/svg" xmlns:ooo="http://xml.openoffice.org/svg/export" xmlns:xlink="http://www.w3.org/1999/xlink" xmlns:presentation="http://sun.com/xmlns/staroffice/presentation" xmlns:smil="http://www.w3.org/2001/SMIL20/" xmlns:anim="urn:oasis:names:tc:opendocument:xmlns:animation:1.0" xml:space="preserve">
 <defs class="ClipPathGroup">
  <clipPath id="presentation_clip_path" clipPathUnits="userSpaceOnUse">
   <rect x="0" y="0" width="8661" height="8661"/>
  </clipPath>
  <clipPath id="presentation_clip_path_shrink" clipPathUnits="userSpaceOnUse">
   <rect x="8" y="8" width="8644" height="8644"/>
  </clipPath>
 </defs>
 <defs class="TextShapeIndex">
  <g ooo:slide="id1" ooo:id-list="id3"/>
 </defs>
 <defs class="EmbeddedBulletChars">
  <g id="bullet-char-template(57356)" transform="scale(0.00048828125,-0.00048828125)">
   <path d="M 580,1141 L 1163,571 580,0 -4,571 580,1141 Z"/>
  </g>
  <g id="bullet-char-template(57354)" transform="scale(0.00048828125,-0.00048828125)">
   <path d="M 8,1128 L 1137,1128 1137,0 8,0 8,1128 Z"/>
  </g>
  <g id="bullet-char-template(10146)" transform="scale(0.00048828125,-0.00048828125)">
   <path d="M 174,0 L 602,739 174,1481 1456,739 174,0 Z M 1358,739 L 309,1346 659,739 1358,739 Z"/>
  </g>
  <g id="bullet-char-template(10132)" transform="scale(0.00048828125,-0.00048828125)">
   <path d="M 2015,739 L 1276,0 717,0 1260,543 174,543 174,936 1260,936 717,1481 1274,1481 2015,739 Z"/>
  </g>
  <g id="bullet-char-template(10007)" transform="scale(0.00048828125,-0.00048828125)">
   <path d="M 0,-2 C -7,14 -16,27 -25,37 L 356,567 C 262,823 215,952 215,954 215,979 228,992 255,992 264,992 276,990 289,987 310,991 331,999 354,1012 L 381,999 492,748 772,1049 836,1024 860,1049 C 881,1039 901,1025 922,1006 886,937 835,863 770,784 769,783 710,716 594,584 L 774,223 C 774,196 753,168 711,139 L 727,119 C 717,90 699,76 672,76 641,76 570,178 457,381 L 164,-76 C 142,-110 111,-127 72,-127 30,-127 9,-110 8,-76 1,-67 -2,-52 -2,-32 -2,-23 -1,-13 0,-2 Z"/>
  </g>
  <g id="bullet-char-template(10004)" transform="scale(0.00048828125,-0.00048828125)">
   <path d="M 285,-33 C 182,-33 111,30 74,156 52,228 41,333 41,471 41,549 55,616 82,672 116,743 169,778 240,778 293,778 328,747 346,684 L 369,508 C 377,444 397,411 428,410 L 1163,1116 C 1174,1127 1196,1133 1229,1133 1271,1133 1292,1118 1292,1087 L 1292,965 C 1292,929 1282,901 1262,881 L 442,47 C 390,-6 338,-33 285,-33 Z"/>
  </g>
  <g id="bullet-char-template(9679)" transform="scale(0.00048828125,-0.00048828125)">
   <path d="M 813,0 C 632,0 489,54 383,161 276,268 223,411 223,592 223,773 276,916 383,1023 489,1130 632,1184 813,1184 992,1184 1136,1130 1245,1023 1353,916 1407,772 1407,592 1407,412 1353,268 1245,161 1136,54 992,0 813,0 Z"/>
  </g>
  <g id="bullet-char-template(8226)" transform="scale(0.00048828125,-0.00048828125)">
   <path d="M 346,457 C 273,457 209,483 155,535 101,586 74,649 74,723 74,796 101,859 155,911 209,963 273,989 346,989 419,989 480,963 531,910 582,859 608,796 608,723 608,648 583,586 532,535 482,483 420,457 346,457 Z"/>
  </g>
  <g id="bullet-char-template(8211)" transform="scale(0.00048828125,-0.00048828125)">
   <path d="M -4,459 L 1135,459 1135,606 -4,606 -4,459 Z"/>
  </g>
  <g id="bullet-char-template(61548)" transform="scale(0.00048828125,-0.00048828125)">
   <path d="M 173,740 C 173,903 231,1043 346,1159 462,1274 601,1332 765,1332 928,1332 1067,1274 1183,1159 1299,1043 1357,903 1357,740 1357,577 1299,437 1183,322 1067,206 928,148 765,148 601,148 462,206 346,322 231,437 173,577 173,740 Z"/>
  </g>
 </defs>
 <defs class="TextEmbeddedBitmaps"/>
 <g>
  <g id="id2" class="Master_Slide">
   <g id="bg-id2" class="Background">
    <path fill="rgb(255,255,255)" stroke="none" d="M 4330,8660 L 0,8660 0,0 8660,0 8660,8660 4330,8660 Z"/>
   </g>
   <g id="bo-id2" class="BackgroundObjects"/>
  </g>
 </g>
 <g class="SlideGroup">
  <g>
   <g id="container-id1">
    <g id="id1" class="Slide" clip-path="url(#presentation_clip_path)">
     <g class="Page">
      <g class="com.sun.star.drawing.CustomShape">
       <g id="id3">
        <rect class="BoundingBox" stroke="none" fill="none" x="493" y="-904" width="7153" height="10470"/>
        <path fill="rgb(56,98,154)" stroke="none" d="M 494,6849 L 4930,2414 3532,1016 7507,1153 7644,5128 6246,3730 1811,8166 494,6849 Z M 5451,-903 L 5451,-903 Z M 3209,9564 L 3209,9564 Z"/>
        <path fill="none" stroke="rgb(52,101,164)" d="M 494,6849 L 4930,2414 3532,1016 7507,1153 7644,5128 6246,3730 1811,8166 494,6849 Z"/>
        <path fill="none" stroke="rgb(52,101,164)" d="M 5451,-903 L 5451,-903 Z"/>
        <path fill="none" stroke="rgb(52,101,164)" d="M 3209,9564 L 3209,9564 Z"/>
       </g>
      </g>
     </g>
    </g>
   </g>
  </g>
 </g>
</svg>
